X:1
T:Silver Threads Among the Gold
M:4/4
L:1/4
K:G
 B3 c| B D F A| G4-| D4| D3 E| F c E c| B4-| B3 z| B3 c| B D F A| G4-|\
 D4| D3 E| F c B A| G4-| G4| F3 G| A D E F| G4-| B4| A3 A| B A B ^c|\
 d4-| d4| B3 c| B D F A| G4-| D4| D3 E| F c B A| G4-| G4| B3 c| B D F A|\
 G4-| D4| D3 E| F c E c| B4-| B3 z| B3 c| B D F A| G4-| D4| D3 E| F c B A|\
 G4-| G4|
